X:1
T:Title
%%score { ( 1 3 ) | ( 2 4 ) }
L:1/8
Q:1/4=100
M:6/4
K:Ab
V:1 treble nm="Grand Piano"
V:3 treble 
V:2 bass 
V:4 bass 
V:1
 [CE]2 [CE]2 [CF]2 [CE]2 | [CE]2 [CF]2 [CE]2 [EA]3 B c2- | c4 c2 B2 c2 d2 | B2 G2 F2 E3 =D E2- | %4
w: Mrs.~C.~H.~Morris * * *||||
 E4 F2 =E2 F2 [FA]2 | z12 | z12 | z12 | z4 A2 z6 | z4 c2- c2 z2 z2 | z12 | z12 | z12 | %13
w: |||||||||
 z6 z4 [Fd]2- | [Fd]4 z2 z6 | z4 A2- A6- | A4 z2 z6 |] %17
w: ||||
V:2
 [A,,A,]2 [A,,A,]2 [A,,A,]2 [A,,A,]2 | [A,,A,]2 [A,,A,]2 [A,,A,]2 [C,A,]3 [E,G,E] [A,E]2- | %2
 [A,E]4 [E,A,E]2 [E,G,D]2 [E,A,E]2 [E,B,E]2 | [E,DE]2 [E,B,E]2 [A,D]2 [A,C]3 [A,_C] [A,=C]2- | %4
 [A,C]4 [D,A,D]2 [D,G,D]2 [D,A,D]2 [D,D]2 | z12 | z6 z4 A,2 | z12 | z12 | z4 A,2- A,2 z2 z2 | z12 | %11
 [B,,B,]2 [B,,B,]2 [B,,F,]2 [B,,B,]2 [B,,A,]2 [E,G,]2- | [E,G,]4 z2 C2 C2 [A,,A,]2 | %13
 [A,,A,]2 .[A,,A,]4 D2 F2 [D,A,]2 | D,2 D,2 [E,A,E]2 [E,CE]2 [E,CE]2 E,2- | E,2 .E,4 z2 F,2 E,2- | %16
 E,4 z2 z6 |] %17
V:3
 x8 | x12 | x12 | x12 | x12 | [=EG]2 [DF]2 [C_E]2 [CA]2 [Ec]2 [_Ge]2- | %6
 [Ge]4 [Fe]2 [Fd]2 [FB]2 [Ac]2- | [Ac]2 [DGB]2 [CEA]2- [CEA]6- | %8
 [CEA]4 [Ec]2- [E-Ac-]2 [EAc-]2 [Ac]2 | E2 A2 E2 E2 c2 c2- | c4 [EB]2- [EB][E=A] [EB]2 [Ge]2 | %11
 [GB]2 [EG]2 [=DB]2 [DA]2 [DF]2 E2- | E4 [Ec]2 E2 A2 [Ec]2- | [Ec]2 [Ec]2 [Fd]2 F2 .A4 | %14
 A,2 A,2 c2 e2 e2 [EAc]2- | [EAc]2 [DGB]2 [CE]2- [CE]2 D2 C2- | C4 z2 z6 |] %17
V:4
 x8 | x12 | x12 | x12 | x12 | [D,A,]2 [D,A,]2 [A,,A,]2 [A,,A,]2 [A,,A,]2 [C,A,]2- | %6
 [C,A,]4 [D,A,]2 [D,A,]2 [D,A,]2 E,2- | [E,E]2 E,2 A,,2- A,,6- | A,,4 A,,2 C,2 E,2 [A,E]2 | %9
 [A,C]2 C2 A,,2 C,2 [E,A,E]2 [A,E]2- | [A,E]4 [B,,G,]2- [B,,G,][B,,_G,] [B,,=G,]2 [B,,B,]2 | x12 | %12
 z4 [A,,A,]2- [A,,A,]4 z2 | z4 [D,A,]2- [D,A,]4 z2 | x12 | z4 A,,2- A,,6- | A,,4 z2 z6 |] %17

